web/packages/design/src/ResourceIcon/assets/skype.svg

<svg width="72" height="72" viewBox="0 0 72 72" fill="none" xmlns="http://www.w3.org/2000/svg">
<g clip-path="url(#clip0_8803_4769)">
<path d="M42.3733 20.952C42.3733 26.5088 40.1585 31.838 36.2162 35.7673C32.2739 39.6966 26.927 41.904 21.3517 41.904C15.7764 41.904 10.4295 39.6966 6.48716 35.7673C2.54485 31.838 0.330078 26.5088 0.330078 20.952C0.330078 15.3952 2.54485 10.066 6.48716 6.1367C10.4295 2.20744 15.7764 0 21.3517 0C26.927 0 32.2739 2.20744 36.2162 6.1367C40.1585 10.066 42.3733 15.3952 42.3733 20.952Z" fill="url(#paint0_linear_8803_4769)"/>
<path d="M71.6699 51.0407C71.6699 53.7931 71.126 56.5186 70.0692 59.0615C69.0124 61.6044 67.4634 63.9149 65.5107 65.8611C63.558 67.8074 61.2398 69.3512 58.6885 70.4045C56.1371 71.4578 53.4026 71.9999 50.6411 71.9999C45.0639 71.9999 39.7152 69.7917 35.7715 65.8611C31.8278 61.9305 29.6123 56.5995 29.6123 51.0407C29.6123 45.482 31.8278 40.151 35.7715 36.2204C39.7152 32.2897 45.0639 30.0815 50.6411 30.0815C53.4026 30.0815 56.1371 30.6237 58.6885 31.677C61.2398 32.7303 63.558 34.2741 65.5107 36.2204C67.4634 38.1666 69.0124 40.4771 70.0692 43.02C71.126 45.5629 71.6699 48.2883 71.6699 51.0407Z" fill="url(#paint1_linear_8803_4769)"/>
<path opacity="0.05" fill-rule="evenodd" clip-rule="evenodd" d="M0.407227 22.7446C0.733746 26.7034 2.17532 30.4886 4.5649 33.6616C6.95448 36.8346 10.1943 39.2656 13.9088 40.6728C17.6233 42.08 21.6606 42.4059 25.5528 41.6127C29.4449 40.8194 33.0327 38.9395 35.9002 36.1909C38.7678 33.4422 40.7978 29.9372 41.755 26.0821C42.7123 22.227 42.5575 18.1796 41.3088 14.4088C40.06 10.638 37.7683 7.29829 34.6992 4.77657C31.6302 2.25485 27.9094 0.654395 23.968 0.160645C18.6164 1.95083 13.7279 4.90458 9.65408 8.80952C5.58025 12.7145 2.42228 17.4736 0.407227 22.7446Z" fill="black"/>
<path opacity="0.05" fill-rule="evenodd" clip-rule="evenodd" d="M71.6149 49.5358C71.3404 45.5288 69.9239 41.6843 67.5331 38.457C65.1424 35.2297 61.8773 32.7547 58.1241 31.3247C54.3709 29.8947 50.2867 29.5695 46.3545 30.3877C42.4224 31.2058 38.8068 33.1331 35.9355 35.9414C33.0642 38.7498 31.0573 42.3217 30.1522 46.2348C29.2471 50.1478 29.4816 54.2383 30.8281 58.0222C32.1746 61.8062 34.5767 65.1253 37.7502 67.587C40.9237 70.0488 44.7358 71.5501 48.7357 71.9134C53.9411 70.0599 58.6824 67.0991 62.6324 63.2353C66.5824 59.3715 69.6471 54.699 71.6149 49.5358Z" fill="black"/>
<path opacity="0.1" fill-rule="evenodd" clip-rule="evenodd" d="M1.39062 27.5353C2.49478 30.913 4.43756 33.9555 7.03727 36.3783C9.63698 38.801 12.8087 40.5249 16.2558 41.3885C19.7028 42.2522 23.3126 42.2276 26.7476 41.3168C30.1825 40.4061 33.3304 38.6391 35.8967 36.1811C38.4631 33.723 40.3641 30.6542 41.422 27.2617C42.4799 23.8692 42.6601 20.2638 41.9457 16.7827C41.2313 13.3016 39.6458 10.0586 37.3373 7.35692C35.0288 4.65522 32.0728 2.58315 28.7458 1.33447C22.1894 2.7004 16.1487 5.88085 11.3121 10.5133C6.47559 15.1458 3.0378 21.0438 1.39062 27.5353Z" fill="black"/>
<path opacity="0.1" fill-rule="evenodd" clip-rule="evenodd" d="M70.6594 44.6113C69.5715 41.1936 67.6271 38.1112 65.0113 35.6573C62.3955 33.2034 59.1952 31.4596 55.7151 30.592C52.2349 29.7244 48.5907 29.7618 45.129 30.7005C41.6674 31.6393 38.5036 33.4482 35.9386 35.9552C33.3736 38.4622 31.4928 41.5839 30.4751 45.0231C29.4575 48.4624 29.3368 52.1049 30.1247 55.604C30.9125 59.103 32.5826 62.3423 34.9761 65.0135C37.3695 67.6848 40.4067 69.6991 43.7986 70.8649C50.2711 69.4124 56.2116 66.1873 60.9555 61.5507C65.6993 56.9141 69.0593 51.0488 70.6594 44.6113Z" fill="black"/>
<path opacity="0.1" fill-rule="evenodd" clip-rule="evenodd" d="M2.16406 29.5225C3.53183 32.6045 5.62136 35.3119 8.25609 37.416C10.8908 39.5201 13.9933 40.9591 17.3014 41.6114C20.6096 42.2637 24.0261 42.11 27.2623 41.1635C30.4985 40.217 33.4594 38.5054 35.8947 36.1733C38.3299 33.8412 40.1681 30.9572 41.2537 27.765C42.3394 24.5727 42.6407 21.1661 42.1322 17.8328C41.6237 14.4996 40.3203 11.3377 38.3321 8.6144C36.344 5.89109 33.7295 3.68637 30.7097 2.18652C23.7257 3.2736 17.2436 6.47777 12.1388 11.3663C7.03398 16.2548 3.55233 22.5922 2.16406 29.5225Z" fill="black"/>
<path opacity="0.1" fill-rule="evenodd" clip-rule="evenodd" d="M69.8845 42.5832C68.5238 39.4655 66.4265 36.7248 63.7729 34.5965C61.1193 32.4681 57.9886 31.0158 54.6499 30.3642C51.3112 29.7126 47.8642 29.8813 44.6051 30.8557C41.3459 31.8302 38.3721 33.5812 35.9389 35.9585C33.5058 38.3357 31.6861 41.2681 30.6363 44.5038C29.5864 47.7394 29.3377 51.1815 29.9115 54.5345C30.4854 57.8874 31.8646 61.0509 33.9307 63.7533C35.9969 66.4556 38.6881 68.616 41.7733 70.0488C48.6961 68.8725 55.0956 65.6134 60.1182 60.7061C65.1408 55.7988 68.5477 49.4768 69.8845 42.5832Z" fill="black"/>
<path d="M69.2984 36.156C69.2984 40.5139 68.4372 44.8291 66.764 48.8553C65.0907 52.8814 62.6382 56.5397 59.5465 59.6212C56.4547 62.7027 52.7843 65.1471 48.7447 66.8148C44.7052 68.4824 40.3756 69.3408 36.0032 69.3408C31.6308 69.3408 27.3012 68.4824 23.2617 66.8148C19.2221 65.1471 15.5517 62.7027 12.4599 59.6212C9.3682 56.5397 6.91569 52.8814 5.24245 48.8553C3.56921 44.8291 2.70801 40.5139 2.70801 36.156C2.70801 31.7981 3.56921 27.4829 5.24245 23.4567C6.91569 19.4306 9.3682 15.7723 12.4599 12.6908C15.5517 9.6093 19.2221 7.16493 23.2617 5.49723C27.3012 3.82954 31.6308 2.97119 36.0032 2.97119C40.3756 2.97119 44.7052 3.82954 48.7447 5.49723C52.7843 7.16493 56.4547 9.6093 59.5465 12.6908C62.6382 15.7723 65.0907 19.4306 66.764 23.4567C68.4372 27.4829 69.2984 31.7981 69.2984 36.156Z" fill="url(#paint2_linear_8803_4769)"/>
<path fill-rule="evenodd" clip-rule="evenodd" d="M26.6414 35.0038C25.2959 34.1183 24.1732 32.9339 23.3606 31.543C22.5762 30.0736 22.189 28.4248 22.2374 26.7598C22.178 24.6468 22.8991 22.586 24.263 20.971C25.6805 19.3493 27.5023 18.132 29.543 17.443C31.7626 16.6589 34.1011 16.2651 36.455 16.279C37.9951 16.2645 39.5336 16.3825 41.0534 16.6318C42.1413 16.7998 43.2098 17.0756 44.243 17.455C45.1919 17.7762 46.0484 18.3231 46.739 19.0486C47.2479 19.6456 47.5218 20.4075 47.5094 21.1918C47.5276 21.5993 47.4653 22.0063 47.3261 22.3897C47.1869 22.7731 46.9736 23.1253 46.6982 23.4262C46.4377 23.7035 46.1215 23.9226 45.7703 24.069C45.4192 24.2154 45.041 24.2859 44.6606 24.2758C44.1373 24.2715 43.621 24.1553 43.1462 23.935C41.9761 23.4113 40.7708 22.9702 39.539 22.615C38.4052 22.3161 37.2364 22.1708 36.0638 22.183C34.5356 22.1268 33.0237 22.5135 31.7102 23.2966C31.1559 23.6334 30.7023 24.1129 30.3966 24.685C30.091 25.257 29.9445 25.9006 29.9726 26.5486C29.9646 27.3994 30.2883 28.2198 30.875 28.8358C31.5723 29.5595 32.3963 30.1493 33.3062 30.5758C34.3254 31.0814 35.8454 31.7518 37.8662 32.587C38.09 32.6579 38.3082 32.7453 38.519 32.8486C40.4911 33.6287 42.3818 34.6006 44.1638 35.7502C45.5713 36.6679 46.7581 37.8859 47.639 39.3166C48.5065 40.8204 48.9409 42.5348 48.8942 44.2702C48.967 46.395 48.3582 48.4874 47.1566 50.2414C45.9331 51.9021 44.2405 53.1584 42.2966 53.8486C39.9539 54.6857 37.4783 55.0891 34.991 55.039C31.5731 55.1587 28.1714 54.5151 25.0334 53.155C24.2312 52.7978 23.5278 52.2509 22.9838 51.5614C22.5322 50.9296 22.298 50.1682 22.3166 49.3918C22.2942 48.9823 22.3609 48.5728 22.5122 48.1916C22.6634 47.8104 22.8956 47.4666 23.1926 47.1838C23.8154 46.6385 24.6239 46.3532 25.451 46.387C26.3726 46.3996 27.2778 46.6325 28.091 47.0662C29.1022 47.5718 29.8998 47.951 30.4838 48.2038C31.1508 48.4831 31.8416 48.7016 32.5478 48.8566C33.4187 49.0477 34.3083 49.1394 35.1998 49.1302C36.7764 49.2428 38.3453 48.8246 39.6566 47.9422C40.1475 47.5581 40.5399 47.0625 40.8011 46.4966C41.0624 45.9307 41.1851 45.3106 41.159 44.6878C41.1605 43.8047 40.8239 42.9545 40.2182 42.3118C39.4179 41.4855 38.4809 40.8035 37.4486 40.2958C36.2278 39.6526 34.511 38.8686 32.2982 37.9438C30.3192 37.1552 28.4241 36.1703 26.6414 35.0038Z" fill="white"/>
</g>
<defs>
<linearGradient id="paint0_linear_8803_4769" x1="18.0733" y1="0.2544" x2="24.6301" y2="41.6496" gradientUnits="userSpaceOnUse">
<stop offset="0.012" stop-color="#00B7F0"/>
<stop offset="0.339" stop-color="#009DE5"/>
<stop offset="0.755" stop-color="#0082D9"/>
<stop offset="1" stop-color="#0078D4"/>
</linearGradient>
<linearGradient id="paint1_linear_8803_4769" x1="32.4395" y1="61.5479" x2="68.8403" y2="40.5335" gradientUnits="userSpaceOnUse">
<stop stop-color="#0078D4"/>
<stop offset="0.37" stop-color="#007AD5"/>
<stop offset="0.573" stop-color="#0082D9"/>
<stop offset="0.735" stop-color="#0090DF"/>
<stop offset="0.875" stop-color="#00A3E7"/>
<stop offset="1" stop-color="#00BCF2"/>
</linearGradient>
<linearGradient id="paint2_linear_8803_4769" x1="23.0096" y1="13.6536" x2="56.228" y2="71.1888" gradientUnits="userSpaceOnUse">
<stop stop-color="#00B7F0"/>
<stop offset="1" stop-color="#007CC1"/>
</linearGradient>
<clipPath id="clip0_8803_4769">
<rect width="72" height="72" fill="white"/>
</clipPath>
</defs>
</svg>

<svg xmlns="http://www.w3.org/2000/svg" width="72" height="72" fill="none" viewBox="0 0 72 72"><g clip-path="url(#clip0_8803_4769)"><path fill="url(#paint0_linear_8803_4769)" d="M42.373 20.952a20.92 20.92 0 0 1-6.157 14.815 21.06 21.06 0 0 1-14.864 6.137 21.06 21.06 0 0 1-14.865-6.137A20.92 20.92 0 0 1 .33 20.952 20.92 20.92 0 0 1 6.487 6.137 21.06 21.06 0 0 1 21.352 0a21.06 21.06 0 0 1 14.864 6.137 20.92 20.92 0 0 1 6.157 14.815"/><path fill="url(#paint1_linear_8803_4769)" d="M71.67 51.04a20.9 20.9 0 0 1-1.6 8.022 21 21 0 0 1-4.56 6.8 21 21 0 0 1-6.822 4.543A21.1 21.1 0 0 1 50.641 72a21.06 21.06 0 0 1-14.87-6.139 20.92 20.92 0 0 1-6.159-14.82c0-5.559 2.216-10.89 6.16-14.82a21.06 21.06 0 0 1 14.87-6.14c2.76 0 5.495.543 8.046 1.596a21 21 0 0 1 6.823 4.543 21 21 0 0 1 4.558 6.8 20.9 20.9 0 0 1 1.6 8.02"/><path fill="#000" fill-rule="evenodd" d="M.407 22.745A21.02 21.02 0 1 0 23.968.16 38.2 38.2 0 0 0 .408 22.745" clip-rule="evenodd" opacity=".05"/><path fill="#000" fill-rule="evenodd" d="M71.615 49.536a21.026 21.026 0 1 0-22.88 22.377 38.2 38.2 0 0 0 22.88-22.377" clip-rule="evenodd" opacity=".05"/><path fill="#000" fill-rule="evenodd" d="M1.39 27.535a21.013 21.013 0 1 0 27.356-26.2 35.74 35.74 0 0 0-27.355 26.2" clip-rule="evenodd" opacity=".1"/><path fill="#000" fill-rule="evenodd" d="M70.66 44.611a21.019 21.019 0 1 0-26.861 26.254 35.74 35.74 0 0 0 26.86-26.254" clip-rule="evenodd" opacity=".1"/><path fill="#000" fill-rule="evenodd" d="M2.164 29.523A21.007 21.007 0 1 0 30.71 2.187 34.53 34.53 0 0 0 2.164 29.523" clip-rule="evenodd" opacity=".1"/><path fill="#000" fill-rule="evenodd" d="M69.885 42.583a21.013 21.013 0 0 0-39.249 1.92A21.015 21.015 0 0 0 41.773 70.05a34.53 34.53 0 0 0 28.112-27.466" clip-rule="evenodd" opacity=".1"/><path fill="url(#paint2_linear_8803_4769)" d="M69.298 36.156a33.1 33.1 0 0 1-2.534 12.7 33.2 33.2 0 0 1-7.217 10.765 33.3 33.3 0 0 1-10.802 7.194 33.4 33.4 0 0 1-25.483 0A33.3 33.3 0 0 1 12.46 59.62a33.2 33.2 0 0 1-7.218-10.766 33.1 33.1 0 0 1 0-25.398A33.2 33.2 0 0 1 12.46 12.69a33.3 33.3 0 0 1 10.802-7.194 33.4 33.4 0 0 1 25.483 0 33.3 33.3 0 0 1 10.802 7.194 33.2 33.2 0 0 1 7.217 10.766 33.1 33.1 0 0 1 2.534 12.699"/><path fill="#fff" fill-rule="evenodd" d="M26.641 35.004a10.46 10.46 0 0 1-3.28-3.461 9.57 9.57 0 0 1-1.124-4.783 8.6 8.6 0 0 1 2.026-5.789 12.2 12.2 0 0 1 5.28-3.528 20.4 20.4 0 0 1 6.912-1.164c1.54-.014 3.079.104 4.598.353 1.088.168 2.157.444 3.19.823a6.2 6.2 0 0 1 2.496 1.594 3.22 3.22 0 0 1 .77 2.143 3.1 3.1 0 0 1-.81 2.234 2.7 2.7 0 0 1-2.038.85 3.7 3.7 0 0 1-1.515-.341 27.4 27.4 0 0 0-3.607-1.32 13 13 0 0 0-3.475-.432 7.93 7.93 0 0 0-4.354 1.114 3.62 3.62 0 0 0-1.737 3.252c-.008.85.315 1.67.902 2.287a8.2 8.2 0 0 0 2.431 1.74q1.53.758 4.56 2.011.336.105.653.262a32.4 32.4 0 0 1 5.645 2.901 11.4 11.4 0 0 1 3.475 3.567 9.4 9.4 0 0 1 1.255 4.953 9.96 9.96 0 0 1-1.737 5.971 10.33 10.33 0 0 1-4.86 3.608 20.5 20.5 0 0 1-7.306 1.19c-3.418.12-6.82-.524-9.958-1.884a5.4 5.4 0 0 1-2.05-1.594 3.6 3.6 0 0 1-.666-2.17 2.83 2.83 0 0 1 .876-2.207 3.23 3.23 0 0 1 2.258-.797 5.8 5.8 0 0 1 2.64.68 51 51 0 0 0 2.393 1.137 11.9 11.9 0 0 0 4.716.926 7.08 7.08 0 0 0 4.457-1.188 3.92 3.92 0 0 0 1.502-3.254 3.46 3.46 0 0 0-.94-2.376 10 10 0 0 0-2.77-2.016q-1.832-.965-5.15-2.352a32 32 0 0 1-5.658-2.94" clip-rule="evenodd"/></g><defs><linearGradient id="paint0_linear_8803_4769" x1="18.073" x2="24.63" y1=".254" y2="41.65" gradientUnits="userSpaceOnUse"><stop offset=".012" stop-color="#00b7f0"/><stop offset=".339" stop-color="#009de5"/><stop offset=".755" stop-color="#0082d9"/><stop offset="1" stop-color="#0078d4"/></linearGradient><linearGradient id="paint1_linear_8803_4769" x1="32.44" x2="68.84" y1="61.548" y2="40.533" gradientUnits="userSpaceOnUse"><stop stop-color="#0078d4"/><stop offset=".37" stop-color="#007ad5"/><stop offset=".573" stop-color="#0082d9"/><stop offset=".735" stop-color="#0090df"/><stop offset=".875" stop-color="#00a3e7"/><stop offset="1" stop-color="#00bcf2"/></linearGradient><linearGradient id="paint2_linear_8803_4769" x1="23.01" x2="56.228" y1="13.654" y2="71.189" gradientUnits="userSpaceOnUse"><stop stop-color="#00b7f0"/><stop offset="1" stop-color="#007cc1"/></linearGradient><clipPath id="clip0_8803_4769"><path fill="#fff" d="M0 0h72v72H0z"/></clipPath></defs></svg>
